X:1
T:Title
%%score 1 { ( 2 5 ) | ( 3 4 ) }
L:1/8
M:3/4
K:C
V:1 treble nm="Akkordion"
V:2 bass nm="Grand Piano"
V:5 bass 
V:3 bass 
V:4 bass 
V:1
 z2 z2[Q:1/4=100] G2 | c2 E3 D | D2 C2 z C | D2 D2 F2 | E4 z G | c2 B3 ^F | A2 G2 z G | d2 E2 A2 | %8
[M:2/4] G4 |[M:1/4] G2 |[M:3/4] A2 A2 A2 | B2 E3 E | c2 c2 c2 | d4 G2 | e2 c3 E | E2 D2 C2 | %16
 E2 D2 C2 | G6 |[M:4/4] G c3 BAGB, | C F3- F3 G- | G d3 cBAG | F E3- E3 z | G .A3 A .B3 | %23
[M:17/16] BcBcde/-e-<ed- |[M:4/4] d c3 E G2 G- |[M:3/4] GC- C4- | C z z2 z2 |] %27
V:2
 z6 | [G,CE]2 [G,B,E]3 [F,B,D] | [F,B,D]2 [A,C]2 z2 | [A,CD]2 [CD]2 [G,B,DF]2 | [G,E]4 z2 | %5
 [CEc]2 [B,_EB]3 [B,^F] | [C_E^FA]2 [B,=EG]2 z [^CEG] | [B,DG]4 [CD^F]2 |[M:2/4] [B,DG]4 | %9
[M:1/4] [EG]2 |[M:3/4] [CFA]6 | [EB]6 | [CEc]6 | [Gd]6 | [EGe]6 | E2 z2 z2 | E2 z2 z2 | G6 | %18
[M:4/4] z2 Gc eg z2 | z2 GB d .g3 | z2 GB dg z2 | z2 Gc e .g3 | z2 [A,CFA][Aca] z2 [B,E^GB][Beb] | %23
[M:17/16] z [CEAc]/-[CEAc]/-[CEAc]-<[CEAc][Acd][^GBe][^gbe']3/2[FAd]- | %24
[M:4/4] [FAd] .[CEGc]3 z [G,B,EG]2 [G,B,DG]- |[M:3/4] [G,B,DG][K:bass][C,E,G,C]- [C,E,G,C]4- | %26
 [C,E,G,C] z z2 z2 |] %27
V:3
 z6 | C,2 G,,3 ^G,, | z2 E,2 z2 | z2 A,2 G,,2 | C,4 z2 | A,,2 B,,3 _E, | [E,,E,]4 z [A,,A,] | %7
 [D,,D,]4 [D,,D,]2 |[M:2/4] [G,,G,]4 |[M:1/4] [C,C]2 |[M:3/4] [F,,F,]6 | [E,^G,B,]6 | [A,,A,]6 | %13
 [G,B,D]6 | [C,C]6 | z2 D2 C2 | z2 D2 C2 | z2 F,4 |[M:4/4] z2[K:treble] [CE][EG] [Gc][ce] z2 | %19
 z2 [B,D][DFG] [FGB] .[Bdf]3 | z2 [B,DF][EFG] [FGB][Bdf] z2 | z2 [CE][EG] [Gc] .[ce]3 | %22
 z2[K:bass] [F,,F,][A,CF] z2 [E,,E,][CE^G] | %23
[M:17/16] z [A,,A,]/-[A,,A,]/-[A,,A,]-<[A,,A,][F,A,B,D][E,G,B,E][K:treble][E^GBe]3/2[K:bass][F,A,D]- | %24
[M:4/4] [F,A,D] .G,3 z2 z F,- |[M:3/4] F,C,,- C,,4- | C,, z z2 z2 |] %27
V:4
 x6 | x6 | A,,4 z2 | F,,4 z2 | x6 | x6 | x6 | x6 |[M:2/4] x4 |[M:1/4] x2 |[M:3/4] x6 | x6 | x6 | %13
 x6 | x6 | F,,6 | D,,6 | G,,6 |[M:4/4] x2[K:treble] x6 | x8 | x8 | x8 | x2[K:bass] x6 | %23
[M:17/16] x6[K:treble] x3/2[K:bass] x |[M:4/4] z4 z G,,3- |[M:3/4] G,, z z2 z2 | x6 |] %27
V:5
 x6 | x6 | x6 | x6 | x6 | x6 | x6 | x6 |[M:2/4] x4 |[M:1/4] x2 |[M:3/4] x6 | x6 | x6 | x6 | x6 | %15
 [F,-A,-C]4 [F,A,]2 | [D,-^F,-C]4 [D,F,]2 | [G,B,E]2 [G,B,D]4 |[M:4/4] z C,3- C,2 z2 | %19
 z G,,3- G,,3 z | z G,,3- G,,2 z2 | z C,3- C,3 z | x8 |[M:17/16] x17/2 |[M:4/4] x8 | %25
[M:3/4] x[K:bass] x5 | x6 |] %27

